web/packages/design/src/ResourceIcon/assets/docusign-dark.svg

<svg width="72" height="72" viewBox="0 0 72 72" fill="none" xmlns="http://www.w3.org/2000/svg">
<g clip-path="url(#clip0_15937_7273)">
<path d="M51.8533 51.8505V70.2516C51.8533 71.2187 51.0727 71.9998 50.1063 71.9998H1.74703C0.780588 71.9998 0 71.2187 0 70.2516V21.8957C0 20.9286 0.780588 20.1475 1.74703 20.1475H20.15L51.8533 51.8505Z" fill="#4C00FF"/>
<path d="M71.9998 25.8722C71.9998 41.336 62.9673 51.8133 51.8532 51.8505L20.1465 20.1505V1.74721C20.1465 0.780724 20.9271 9.92453e-05 21.8935 9.92453e-05H49.1397C62.0752 -0.0370734 71.9998 10.3713 71.9998 25.8722Z" fill="#FF5252"/>
<path d="M51.2213 30.816C51.6302 31.2249 51.85 31.7453 51.85 32.3029V51.8504H21.9C20.9336 51.8504 20.1504 51.0669 20.1504 50.1004L20.1465 20.1504H39.624C40.1816 20.1504 40.7391 20.3333 41.1108 20.7422L51.2213 30.816Z" fill="white"/>
</g>
<defs>
<clipPath id="clip0_15937_7273">
<rect width="72" height="72" fill="white" transform="translate(0 0.000488281)"/>
</clipPath>
</defs>
</svg>

<svg xmlns="http://www.w3.org/2000/svg" width="72" height="72" fill="none" viewBox="0 0 72 72"><g clip-path="url(#a)"><path fill="#4c00ff" d="M51.853 51.85v18.402c0 .967-.78 1.748-1.747 1.748H1.747A1.746 1.746 0 0 1 0 70.252V21.896c0-.967.78-1.748 1.747-1.748H20.15z"/><path fill="#ff5252" d="M72 25.872c0 15.464-9.033 25.941-20.147 25.978l-31.707-31.7V1.748c0-.966.781-1.747 1.747-1.747H49.14C62.075-.037 72 10.371 72 25.872"/><path fill="#fff" d="M51.221 30.816c.41.409.629.93.629 1.487V51.85H21.9a1.75 1.75 0 0 1-1.75-1.75l-.003-29.95h19.477c.558 0 1.115.183 1.487.592z"/></g><defs><clipPath id="a"><path fill="#fff" d="M0 0h72v72H0z"/></clipPath></defs></svg>
